X:1
T:Title
%%score 1 2
L:1/8
Q:1/4=90
M:3/4
K:Bb
V:1 treble nm="Grand Piano, Soprano"
V:2 bass nm="Choir Pad, The Meeting Place"
V:1
 [B,D][CE] [DF]3 [DF] | [EG][DF] [DF] [DB]3 | [DB][DB] [Fc]3 [F=B] | [Fc][F_d] [F=d]4 | %4
w: By~Philip~Phillips,~1893 * * *||||
 [B,D][CE] [DF]3 [DF] | [EG][DF] [DF] [DB]3 | [GB][GB] [FA]3 C | [FA][=EG] F4 | F[FA] [Fc]3 [F=B] | %9
w: |||||
 [Fc][F_d] [F=d]2 [DB]2 | [FB][FB] [GB]3 [EG] | [GB][EG] [DF]4 | F[FA] [Fc]3 [F=B] | %13
w: ||||
 [Fc][Fd] [Ge] [Ge]3 | [Fe][Fe] [Fd]3 [Fc] | [FB][Fc] [Fd]4 | [Gd][Gd] [Gd]3 [Fd] | %17
w: ||||
 [=Ec][EB] [Fc] [Fc]3 | [^Fd][Fc] [GB]3 [Gc] | [GB][EG] [DF]4 | [B,D][CE] [DF]3 [DF] | %21
w: ||||
 [EG][DF] [DF] [DB]3 | [DB][DB] [Fc]3 [F=B] | [Fc][F_d] [F=d]4 | [Fd][DB] [DF]3 [DF] | %25
w: ||||
 [DF][D_A] [EG]4 | [DB][Gc] [Fd][DB] [Ec]2 | [Fd]2 [DB]4- | [DB]4 z2 |] %29
w: ||||
V:2
 [B,,F,][B,,F,] [B,,B,]3 [B,,B,] | [B,,B,][B,,B,] [B,,B,] [B,,F,]3 | %2
 [B,,F,][B,,F,] [F,A,]3 [F,_A,] | [F,A,][F,A,] B,4 | [B,,F,][B,,F,] [B,,B,]3 [B,,B,] | %5
 [B,,B,][B,,B,] [B,,B,] B,3 | [G,D][G,D] [C,C]3 [C,A,] | [C,C][C,B,] [F,A,]4 | %8
 [F,C][F,C] [F,A,]3 [F,_A,] | [F,A,][F,A,] [B,,B,]2 [B,,B,]2 | [D,B,][D,B,] [E,B,]3 [E,B,] | %11
 [E,B,][G,B,] B,4 | [F,C][F,C] [F,A,]3 [F,_A,] | [F,A,][D,=B,] [C,C] [C,C]3 | %14
 [F,A,][F,A,] B,3 [F,A,] | [D,B,][F,A,] B,4 | [G,B,][G,B,] [G,B,]3 B, | [G,C]B, [F,B,] [F,A,]3 | %18
 [D,A,][D,D] [G,D]3 [G,D] | [E,E][E,E] B,4 | [B,,F,][B,,F,] [B,,B,]3 [B,,B,] | %21
 [B,,B,][B,,B,] [B,,B,] [B,,F,]3 | G,G, [F,A,]3 [F,_A,] | [F,A,][F,A,] [B,,B,]4 | %24
 [B,,B,][B,,B,] [B,,B,]3 [B,,B,] | [B,,B,][B,,B,] [F,A,]4 | [D,B,][E,D] [F,B,][F,B,] [F,A,]2 | %27
 [F,A,]2 [B,,B,]4- | [B,,B,]4 z2 |] %29

